svg/SJJB-OpenStreetMapIcons/sport/baseball.svg

<?xml version="1.0" encoding="UTF-8" standalone="no"?>
<!-- Created with Inkscape (http://www.inkscape.org/) -->
<svg
   xmlns:dc="http://purl.org/dc/elements/1.1/"
   xmlns:cc="http://creativecommons.org/ns#"
   xmlns:rdf="http://www.w3.org/1999/02/22-rdf-syntax-ns#"
   xmlns:svg="http://www.w3.org/2000/svg"
   xmlns="http://www.w3.org/2000/svg"
   xmlns:sodipodi="http://sodipodi.sourceforge.net/DTD/sodipodi-0.dtd"
   xmlns:inkscape="http://www.inkscape.org/namespaces/inkscape"
   version="1.0"
   width="580"
   height="580"
   id="svg2"
   sodipodi:version="0.32"
   inkscape:version="0.46"
   sodipodi:docname="sport_baseball.svg"
   sodipodi:docbase="s:\Data\FacilityIcons"
   inkscape:output_extension="org.inkscape.output.svg.inkscape">
  <metadata
     id="metadata2975">
    <rdf:RDF>
      <cc:Work
         rdf:about="">
        <dc:format>image/svg+xml</dc:format>
        <dc:type
           rdf:resource="http://purl.org/dc/dcmitype/StillImage" />
			  <cc:license
           rdf:resource="http://web.resource.org/cc/PublicDomain" />
        <dc:language>en</dc:language>
      </cc:Work>
    </rdf:RDF>
  </metadata>
  <sodipodi:namedview
     inkscape:window-height="947"
     inkscape:window-width="1048"
     inkscape:pageshadow="2"
     inkscape:pageopacity="0.0"
     guidetolerance="10.0"
     gridtolerance="10.0"
     objecttolerance="10.0"
     borderopacity="1.0"
     bordercolor="#666666"
     pagecolor="#ffffff"
     id="base"
     inkscape:zoom="0.92167712"
     inkscape:cx="301.5186"
     inkscape:cy="281.19503"
     inkscape:window-x="91"
     inkscape:window-y="25"
     inkscape:current-layer="svg2"
     showgrid="false" />
  <defs
     id="defs4">
    <inkscape:perspective
       sodipodi:type="inkscape:persp3d"
       inkscape:vp_x="0 : 290 : 1"
       inkscape:vp_y="0 : 1000 : 0"
       inkscape:vp_z="580 : 290 : 1"
       inkscape:persp3d-origin="290 : 193.33333 : 1"
       id="perspective2441" />
    <inkscape:perspective
       id="perspective3452"
       inkscape:persp3d-origin="30 : 20 : 1"
       inkscape:vp_z="60 : 30 : 1"
       inkscape:vp_y="0 : 1000 : 0"
       inkscape:vp_x="0 : 30 : 1"
       sodipodi:type="inkscape:persp3d" />
    <symbol
       viewBox="244.5 110 489 219.9"
       id="symbol-university">
      <path
         id="path4460"
         d="M79,43l57,119c0,0,21-96,104-96s124,106,124,106l43-133l82-17L0,17L79,43z" />
      <path
         id="path4462"
         d="M94,176l-21,39"
         stroke-width="20"
         stroke="#000000"
         fill="none" />
      <path
         id="path4464"
         d="M300,19c0,10.5-22.6,19-50.5,19S199,29.5,199,19s22.6-19,50.5-19S300,8.5,300,19z" />
      <path
         id="path4466"
         d="M112,216l-16-38L64,88c0,0-9-8-4-35s16-24,16-24"
         stroke-width="20"
         stroke="#000000"
         ill="none" />
    </symbol>
    <inkscape:perspective
       id="perspective4471"
       inkscape:persp3d-origin="372.04724 : 350.78739 : 1"
       inkscape:vp_z="744.09448 : 526.18109 : 1"
       inkscape:vp_y="0 : 1000 : 0"
       inkscape:vp_x="0 : 526.18109 : 1"
       sodipodi:type="inkscape:persp3d" />
    <inkscape:perspective
       id="perspective4668"
       inkscape:persp3d-origin="6 : 4 : 1"
       inkscape:vp_z="12 : 6 : 1"
       inkscape:vp_y="0 : 1000 : 0"
       inkscape:vp_x="0 : 6 : 1"
       sodipodi:type="inkscape:persp3d" />
  </defs>
  <g
     id="g1327">
    <path
       d="M 66.275,1.768 C 24.94,1.768 1.704,23.139 1.704,66.804 L 1.704,516.927 C 1.704,557.771 22.599,579.156 63.896,579.156 L 515.92,579.156 C 557.227,579.156 578.149,558.841 578.149,516.927 L 578.149,66.804 C 578.149,24.203 557.227,1.768 514.628,1.768 C 514.624,1.768 66.133,1.625 66.275,1.768 z "
       style="fill:#111;stroke:#eee;stroke-width:3.40799999"
       id="path1329" />
  </g>
  <g
     id="layer3"
     inkscape:label="Layout"
     style="display:none;stroke:#757575;stroke-opacity:1"
     transform="matrix(48.14969,0,0,48.14969,-536.27327,-33.306752)">
    <rect
       style="fill:none;stroke:#757575;stroke-width:0.10000000000000001;stroke-miterlimit:4;stroke-dasharray:none;stroke-opacity:1;display:inline"
       id="rect4134"
       width="10"
       height="10"
       x="1"
       y="1" />
    <rect
       style="fill:none;stroke:#757575;stroke-width:0.10000000000000001;stroke-miterlimit:4;stroke-dasharray:none;stroke-opacity:1;display:inline"
       id="rect4136"
       width="8"
       height="8"
       x="2"
       y="2" />
  </g>
  <path
     transform="matrix(14.685839,0,0,14.685839,565.76584,1146.0639)"
     style="font-size:40px;font-style:normal;font-variant:normal;font-weight:normal;font-stretch:normal;text-align:start;line-height:125%;writing-mode:lr-tb;text-anchor:start;fill:#ffffff;fill-opacity:1;stroke:none;stroke-width:1px;stroke-linecap:butt;stroke-linejoin:miter;stroke-opacity:1;font-family:NPSPICT3;-inkscape-font-specification:NPSPICT3"
     d="M -19.742432,-69.308838 C -19.742451,-68.561745 -19.482441,-67.928201 -18.962402,-67.408203 C -18.442403,-66.888163 -17.809266,-66.628153 -17.062988,-66.628174 C -16.342796,-66.628153 -15.715966,-66.888163 -15.182495,-67.408203 C -14.649072,-67.928201 -14.382349,-68.561745 -14.382324,-69.308838 C -14.382349,-70.05507 -14.649072,-70.688208 -15.182495,-71.208252 C -15.715966,-71.728246 -16.342796,-71.988255 -17.062988,-71.988281 C -17.809266,-71.988255 -18.442403,-71.728246 -18.962402,-71.208252 C -19.482441,-70.688208 -19.742451,-70.05507 -19.742432,-69.308838 L -19.742432,-69.308838 z M -13.742676,-55.228027 L -13.742676,-64.828857 C -13.822454,-65.628805 -14.248885,-66.028789 -15.021973,-66.028809 L -20.102539,-66.028809 C -20.236021,-66.05483 -20.462665,-65.948222 -20.782471,-65.708984 L -23.742676,-63.989014 L -26.862793,-67.068848 C -27.182629,-67.415506 -27.555757,-67.588846 -27.982178,-67.588867 C -28.888763,-67.588846 -29.342051,-67.122131 -29.342041,-66.188721 C -29.342051,-65.842021 -29.222015,-65.521791 -28.981934,-65.228027 L -25.021973,-61.268066 C -24.702163,-60.948227 -24.355483,-60.788315 -23.981934,-60.78833 C -23.742691,-60.788315 -23.462743,-60.881496 -23.14209,-61.067871 L -20.541992,-62.508301 L -20.541992,-55.428223 L -24.501953,-43.268799 C -24.582534,-43.081627 -24.622817,-42.89486 -24.622803,-42.708496 C -24.622817,-42.17546 -24.422826,-41.715459 -24.022827,-41.328491 C -23.622859,-40.941534 -23.15594,-40.748052 -22.62207,-40.748047 C -21.662615,-40.748052 -21.00954,-41.241623 -20.662842,-42.22876 L -17.182617,-52.748779 L -13.662109,-42.188477 C -13.315455,-41.202153 -12.66238,-40.70899 -11.702881,-40.708984 C -11.169055,-40.70899 -10.702136,-40.902268 -10.302124,-41.288818 C -9.9021695,-41.675379 -9.7021778,-42.135177 -9.7021484,-42.668213 C -9.7021778,-42.855391 -9.7290332,-43.042158 -9.7827148,-43.228516 L -13.742676,-55.228027 z M -30.422363,-65.228027 L -30.462646,-65.188965 C -30.62216,-65.028627 -30.62216,-64.855287 -30.462646,-64.668945 L -29.702148,-63.868164 C -29.542653,-63.708641 -29.369313,-63.708641 -29.182129,-63.868164 L -29.143066,-63.908447 C -28.982757,-64.09479 -28.982757,-64.26813 -29.143066,-64.428467 L -29.902344,-65.228027 C -30.062672,-65.388327 -30.236011,-65.388327 -30.422363,-65.228027 L -30.422363,-65.228027 z M -21.182861,-71.749023 L -17.781982,-74.908203 C -17.649354,-75.068493 -17.583029,-75.255261 -17.583008,-75.468506 C -17.583029,-76.028372 -17.862977,-76.308319 -18.422852,-76.30835 C -18.662944,-76.308319 -18.862732,-76.241588 -19.022217,-76.108154 L -22.261963,-72.868408 L -26.862793,-67.908691 L -26.30249,-67.348389 L -21.182861,-71.749023 z"
     id="flowRoot3192" />
</svg>

<svg xmlns="http://www.w3.org/2000/svg" viewBox="0 0 580 580"><path d="m66.28 1.768c-41.34 0-64.57 21.371-64.57 65.04v450.12c0 40.844 20.895 62.23 62.19 62.23h452.02c41.31 0 62.23-20.315 62.23-62.23v-450.12c0-42.601-20.922-65.04-63.52-65.04-.004 0-448.5-.143-448.35 0z" fill="#111" stroke="#eee" stroke-width="3.408"/><path transform="matrix(14.68584 0 0 14.68584 565.77 1146.06)" d="m-19.742-69.31c0 .747.26 1.381.78 1.901.52.52 1.153.78 1.899.78.72 0 1.347-.26 1.88-.78.533-.52.8-1.154.8-1.901 0-.746-.267-1.379-.8-1.899-.533-.52-1.16-.78-1.88-.78-.746 0-1.379.26-1.899.78-.52.52-.78 1.153-.78 1.899m6 14.08v-9.601c-.08-.8-.506-1.2-1.279-1.2h-5.081c-.133-.026-.36.081-.68.32l-2.96 1.72-3.12-3.08c-.32-.347-.693-.52-1.119-.52-.907 0-1.36.467-1.36 1.4 0 .347.12.667.36.961l3.96 3.96c.32.32.666.48 1.04.48.239 0 .519-.093.84-.28l2.6-1.44v7.08l-3.96 12.159c-.081.187-.121.374-.121.56 0 .533.2.993.6 1.38.4.387.867.58 1.401.58.959 0 1.613-.494 1.959-1.481l3.48-10.52 3.521 10.56c.347.986 1 1.479 1.959 1.479.534 0 1-.193 1.401-.58.4-.387.6-.846.6-1.379 0-.187-.027-.374-.081-.56l-3.96-12m-16.68-10l-.04.039c-.16.16-.16.334 0 .52l.76.801c.159.16.333.16.52 0l.039-.04c.16-.186.16-.36 0-.52l-.759-.8c-.16-.16-.334-.16-.52 0m9.24-6.521l3.401-3.159c.133-.16.199-.347.199-.56 0-.56-.28-.84-.84-.84-.24 0-.44.067-.599.2l-3.24 3.24-4.601 4.96.56.56 5.12-4.401" fill="#fff"/></svg>
